dist/img/sprites/price.svg

<svg width="82" height="82" viewBox="0 0 82 82" fill="none" xmlns="http://www.w3.org/2000/svg">
<circle cx="41" cy="41" r="40.5" stroke="#333333"/>
<g clip-path="url(#clip0_5_224)">
<path d="M34.3333 57.6667C33.45 57.6634 32.6034 57.3126 31.9767 56.69L21.9767 46.69C21.3567 46.0683 21 45.21 21 44.3333C21 43.4567 21.3567 42.5983 21.9767 41.9767L36.9767 26.9767C37.6034 26.3541 38.45 26.0033 39.3333 26H49.3333C49.5483 26 49.7517 26.025 49.9517 26.075C51.4683 26.3067 52.6667 27.7133 52.6667 29.3333V39.3333C52.6667 40.21 52.31 41.0683 51.69 41.69L36.69 56.69C36.0633 57.3126 35.2167 57.6634 34.3333 57.6667ZM39.3333 27.6667C38.895 27.6667 38.4667 27.845 38.155 28.155L23.155 43.155C22.845 43.4667 22.6667 43.895 22.6667 44.3333C22.6667 44.7717 22.845 45.2 23.155 45.5117L33.155 55.5117C33.7767 56.1333 34.8883 56.1333 35.51 55.5117L50.51 40.5117C50.8217 40.2 51 39.7717 51 39.3333V29.3333C50.9998 28.943 50.8612 28.5653 50.6089 28.2675C50.3565 27.9696 50.0067 27.7709 49.6217 27.7067C49.5277 27.681 49.4308 27.6675 49.3333 27.6667H39.3333Z" fill="#333333"/>
<path d="M57.55 61H42.7833C41.8789 61.002 41.0085 60.6552 40.3533 60.0317C40.0342 59.7254 39.7796 59.3584 39.6044 58.9522C39.4292 58.546 39.3371 58.109 39.3333 57.6666V52.0333C39.3333 51.8116 39.4217 51.6 39.5767 51.4433L50.51 40.51C50.8217 40.2 51 39.7716 51 39.3333V29.3333C50.9998 28.9429 50.8612 28.5653 50.6089 28.2675C50.3565 27.9696 50.0067 27.7709 49.6217 27.7066C49.4269 27.6769 49.249 27.5791 49.1195 27.4306C48.99 27.2821 48.9173 27.0925 48.9143 26.8956C48.9113 26.6986 48.9782 26.5069 49.1031 26.3545C49.228 26.2022 49.4029 26.099 49.5967 26.0633C50.68 25.8633 51.8067 26.2 52.5967 26.9683L59.9767 34.0483C60.6283 34.6783 61 35.5416 61 36.4166V57.6666C60.9963 58.109 60.9041 58.546 60.7289 58.9522C60.5538 59.3584 60.2991 59.7254 59.98 60.0317C59.3433 60.6483 58.4583 61 57.55 61ZM41 52.3783V57.6666C41 58.0933 41.1867 58.52 41.5133 58.835C41.8568 59.1583 42.3117 59.3368 42.7833 59.3333H57.55C58.03 59.3333 58.4917 59.1516 58.82 58.835C58.9792 58.6844 59.1067 58.5034 59.1948 58.3027C59.283 58.1021 59.3301 57.8858 59.3333 57.6666V36.4166C59.3301 36.1975 59.283 35.9812 59.1948 35.7806C59.1067 35.5799 58.9792 35.3989 58.82 35.2483L52.6667 29.345V39.3333C52.6667 40.21 52.31 41.0683 51.69 41.69L41 52.3783Z" fill="#333333"/>
<path d="M46.8333 34.3333C45.455 34.3333 44.3333 33.2116 44.3333 31.8333C44.3333 30.455 45.455 29.3333 46.8333 29.3333C48.2117 29.3333 49.3333 30.455 49.3333 31.8333C49.3333 33.2116 48.2117 34.3333 46.8333 34.3333ZM46.8333 31C46.6123 31 46.4004 31.0878 46.2441 31.2441C46.0878 31.4003 46 31.6123 46 31.8333C46 32.0543 46.0878 32.2663 46.2441 32.4226C46.4004 32.5788 46.6123 32.6666 46.8333 32.6666C47.0543 32.6666 47.2663 32.5788 47.4226 32.4226C47.5789 32.2663 47.6667 32.0543 47.6667 31.8333C47.6667 31.6123 47.5789 31.4003 47.4226 31.2441C47.2663 31.0878 47.0543 31 46.8333 31Z" fill="#333333"/>
<path d="M56.8333 32.6667C56.6123 32.6667 56.4004 32.5789 56.2441 32.4226C56.0878 32.2663 56 32.0543 56 31.8333V26.8333C56 24.5367 54.13 22.6667 51.8333 22.6667C49.5367 22.6667 47.6667 24.5367 47.6667 26.8333V30.1667C47.6667 30.3877 47.5789 30.5996 47.4226 30.7559C47.2663 30.9122 47.0543 31 46.8333 31C46.6123 31 46.4004 30.9122 46.2441 30.7559C46.0878 30.5996 46 30.3877 46 30.1667V26.8333C46 23.6167 48.6167 21 51.8333 21C55.05 21 57.6667 23.6167 57.6667 26.8333V31.8333C57.6667 32.0543 57.5789 32.2663 57.4226 32.4226C57.2663 32.5789 57.0543 32.6667 56.8333 32.6667Z" fill="#333333"/>
</g>
<defs>
<clipPath id="clip0_5_224">
<rect width="40" height="40" fill="white" transform="translate(21 21)"/>
</clipPath>
</defs>
</svg>

<svg width="82" height="82" viewBox="0 0 82 82" fill="none" xmlns="http://www.w3.org/2000/svg"><circle cx="41" cy="41" r="40.5" stroke="#333"/><g clip-path="url(#clip0_5_224)" fill="#333"><path d="M34.333 57.667a3.362 3.362 0 01-2.356-.977l-10-10A3.362 3.362 0 0121 44.333c0-.876.357-1.735.977-2.356l15-15A3.362 3.362 0 0139.333 26h10c.215 0 .419.025.619.075 1.516.232 2.715 1.638 2.715 3.258v10c0 .877-.357 1.735-.977 2.357l-15 15a3.362 3.362 0 01-2.357.977zm5-30c-.438 0-.866.178-1.178.488l-15 15c-.31.312-.488.74-.488 1.178 0 .439.178.867.488 1.179l10 10c.622.621 1.733.621 2.355 0l15-15c.312-.312.49-.74.49-1.179v-10a1.65 1.65 0 00-1.378-1.626 1.129 1.129 0 00-.289-.04h-10z"/><path d="M57.55 61H42.783a3.514 3.514 0 01-2.43-.968 3.317 3.317 0 01-1.02-2.365v-5.634a.84.84 0 01.244-.59L50.51 40.51c.312-.31.49-.738.49-1.177v-10a1.65 1.65 0 00-1.378-1.626.833.833 0 01-.025-1.644c1.083-.2 2.21.137 3 .905l7.38 7.08A3.32 3.32 0 0161 36.417v21.25a3.316 3.316 0 01-1.02 2.365 3.513 3.513 0 01-2.43.968zM41 52.378v5.289c0 .426.187.853.513 1.168.344.323.799.502 1.27.498H57.55c.48 0 .942-.181 1.27-.498a1.64 1.64 0 00.513-1.168v-21.25a1.64 1.64 0 00-.513-1.169l-6.153-5.903v9.988c0 .877-.357 1.735-.977 2.357L41 52.378z"/><path d="M46.833 34.333a2.503 2.503 0 01-2.5-2.5c0-1.378 1.122-2.5 2.5-2.5 1.379 0 2.5 1.122 2.5 2.5 0 1.379-1.121 2.5-2.5 2.5zm0-3.333a.833.833 0 100 1.666.833.833 0 000-1.666z"/><path d="M56.833 32.667a.833.833 0 01-.833-.834v-5a4.172 4.172 0 00-4.167-4.166 4.172 4.172 0 00-4.166 4.166v3.334a.833.833 0 01-1.667 0v-3.334A5.84 5.84 0 0151.833 21a5.84 5.84 0 015.834 5.833v5a.833.833 0 01-.834.834z"/></g><defs><clipPath id="clip0_5_224"><path fill="#fff" transform="translate(21 21)" d="M0 0h40v40H0z"/></clipPath></defs></svg>
